icons/tablet.svg

<?xml version="1.0" encoding="UTF-8" standalone="no"?>
<svg
   height="16"
   width="16"
   version="1.1"
   id="svg8"
   sodipodi:docname="tablet.svg"
   inkscape:version="1.1 (ce6663b3b7, 2021-05-25)"
   xmlns:inkscape="http://www.inkscape.org/namespaces/inkscape"
   xmlns:sodipodi="http://sodipodi.sourceforge.net/DTD/sodipodi-0.dtd"
   xmlns="http://www.w3.org/2000/svg"
   xmlns:svg="http://www.w3.org/2000/svg">
  <defs
     id="defs12" />
  <sodipodi:namedview
     id="namedview10"
     pagecolor="#ffffff"
     bordercolor="#666666"
     borderopacity="1.0"
     inkscape:pageshadow="2"
     inkscape:pageopacity="0.0"
     inkscape:pagecheckerboard="0"
     showgrid="false"
     inkscape:zoom="28"
     inkscape:cx="4.4821429"
     inkscape:cy="4.8392857"
     inkscape:window-width="1920"
     inkscape:window-height="1016"
     inkscape:window-x="0"
     inkscape:window-y="27"
     inkscape:window-maximized="1"
     inkscape:current-layer="svg8" />
  <path
     id="path2"
     style="line-height:normal;font-variant-ligatures:normal;font-variant-position:normal;font-variant-caps:normal;font-variant-numeric:normal;font-variant-alternates:normal;font-feature-settings:normal;text-indent:0;text-align:start;text-decoration-line:none;text-decoration-style:solid;text-decoration-color:#000000;text-transform:none;text-orientation:mixed;shape-padding:0;isolation:auto;mix-blend-mode:normal;fill:#808080;marker:none"
     d="M 3.9941406 2 C 2.7361406 2.015 1.8145 1.9697656 1.0625 2.3847656 A 1.88 1.88 0 0 0 0.22460938 3.3828125 C 0.059609375 3.8218125 1.8503717e-17 4.343 0 5 L 0 11 C 0 11.658 0.059609375 12.179188 0.22460938 12.617188 C 0.38860938 13.056188 0.6855 13.407234 1.0625 13.615234 C 1.8145 14.031234 2.7361406 13.985 3.9941406 14 L 12.005859 14 C 13.263859 13.986 14.1845 14.030234 14.9375 13.615234 A 1.88 1.88 0 0 0 15.775391 12.617188 C 15.939391 12.179187 16 11.657 16 11 L 16 5 C 16 4.342 15.940391 3.8218125 15.775391 3.3828125 A 1.88 1.88 0 0 0 14.9375 2.3847656 C 14.1845 1.9687656 13.263859 2.015 12.005859 2 L 3.9980469 2 L 3.9941406 2 z M 4 3 L 12 3 C 12.884998 3.0105441 13.551702 3.0367908 14 3.1210938 L 14 12.878906 C 13.551702 12.963209 12.884998 12.989456 12 13 L 4 13 C 3.1169216 12.98947 2.4490631 12.962931 2 12.878906 L 2 3.1210938 C 2.4486003 3.0370686 3.1155177 3.0105296 4 3 z " />
</svg>

<svg height="16" width="16" xmlns="http://www.w3.org/2000/svg">
    <g fill="gray">
        <path d="M3.994 2c-1.258.015-2.179-.03-2.931.385a1.88 1.88 0 0 0-.838.998C.06 3.822 0 4.343 0 5v6c0 .658.06 1.179.225 1.617.164.439.461.79.838.998.752.416 1.673.37 2.931.385H12.006c1.258-.014 2.179.03 2.932-.385a1.88 1.88 0 0 0 .838-.998c.164-.438.224-.96.224-1.617V5c0-.658-.06-1.178-.225-1.617a1.88 1.88 0 0 0-.837-.998c-.753-.416-1.674-.37-2.932-.385H3.998zM4 3h8c1.259.015 2.087.06 2.453.262.184.101.29.213.387.472.097.26.16.674.16 1.266v6c0 .592-.063 1.006-.16 1.266-.098.26-.203.371-.387.472-.366.202-1.194.247-2.453.262H4c-1.258-.015-2.09-.06-2.455-.262-.183-.1-.287-.212-.385-.472C1.063 12.006 1 11.592 1 11V5c0-.592.063-1.006.16-1.266.098-.26.202-.371.385-.472C1.91 3.06 2.74 3.015 4 3z" style="line-height:normal;font-variant-ligatures:normal;font-variant-position:normal;font-variant-caps:normal;font-variant-numeric:normal;font-variant-alternates:normal;font-feature-settings:normal;text-indent:0;text-align:start;text-decoration-line:none;text-decoration-style:solid;text-decoration-color:#000;text-transform:none;text-orientation:mixed;shape-padding:0;isolation:auto;mix-blend-mode:normal;marker:none" color="#000" font-weight="400" font-family="sans-serif" white-space="normal" overflow="visible"/>
        <path d="M.5 3.5l1-1H2v11h-.5l-1-1zM15.5 3.5l-1-1H14v11h.5l1-1z"/>
    </g>
</svg>
